vendor/shopware/storefront/Resources/app/storefront/dist/assets/icon/solid/help.svg

<svg xmlns="http://www.w3.org/2000/svg" width="16" height="16" viewBox="0 0 16 16">
  <path fill="#189EFF" fill-rule="evenodd" d="M8,0 C12.418278,-8.11624501e-16 16,3.581722 16,8 C16,12.418278 12.418278,16 8,16 C3.581722,16 5.41083001e-16,12.418278 0,8 C-5.41083001e-16,3.581722 3.581722,8.11624501e-16 8,0 Z M7.07,9.228 L8.618,9.228 C8.59399988,8.9879988 8.61799964,8.77400094 8.69,8.586 C8.76200036,8.39799906 8.85999938,8.22000084 8.984,8.052 C9.10800062,7.88399916 9.24399926,7.72200078 9.392,7.566 C9.54000074,7.40999922 9.67999934,7.24800084 9.812,7.08 C9.94400066,6.91199916 10.0539996,6.73000098 10.142,6.534 C10.2300004,6.33799902 10.274,6.11600124 10.274,5.868 C10.274,5.51599824 10.2160006,5.2100013 10.1,4.95 C9.98399942,4.6899987 9.82400102,4.47600084 9.62,4.308 C9.41599898,4.13999916 9.17600138,4.0160004 8.9,3.936 C8.62399862,3.8559996 8.3260016,3.816 8.006,3.816 C7.53399764,3.816 7.10400194,3.915999 6.716,4.116 C6.32799806,4.316001 5.9940014,4.57999836 5.714,4.908 L6.686,5.796 C6.8460008,5.6359992 7.01199914,5.50400052 7.184,5.4 C7.35600086,5.29599948 7.55399888,5.244 7.778,5.244 C8.0180012,5.244 8.21199926,5.30799936 8.36,5.436 C8.50800074,5.56400064 8.582,5.75199876 8.582,6 C8.582,6.15200076 8.54000042,6.2979993 8.456,6.438 C8.37199958,6.5780007 8.26600064,6.72199926 8.138,6.87 C8.00999936,7.01800074 7.8760007,7.1719992 7.736,7.332 C7.5959993,7.4920008 7.47000056,7.66799904 7.358,7.86 C7.24599944,8.05200096 7.1600003,8.25999888 7.1,8.484 C7.0399997,8.70800112 7.0299998,8.95599864 7.07,9.228 Z M7.838,12.144 C8.14200152,12.144 8.39599898,12.0380011 8.6,11.826 C8.80400102,11.6139989 8.906,11.3520016 8.906,11.04 C8.906,10.7199984 8.80400102,10.4540011 8.6,10.242 C8.39599898,10.0299989 8.14200152,9.924 7.838,9.924 C7.53399848,9.924 7.282001,10.0299989 7.082,10.242 C6.881999,10.4540011 6.782,10.7199984 6.782,11.04 C6.782,11.3520016 6.881999,11.6139989 7.082,11.826 C7.282001,12.0380011 7.53399848,12.144 7.838,12.144 Z"/>
</svg>

<svg xmlns="http://www.w3.org/2000/svg" width="16" height="16" viewBox="0 0 16 16"><path fill="#189EFF" fill-rule="evenodd" d="M8 0c4.4183 0 8 3.5817 8 8s-3.5817 8-8 8-8-3.5817-8-8 3.5817-8 8-8zm-.93 9.228h1.548c-.024-.24 0-.454.072-.642s.17-.366.294-.534c.124-.168.26-.33.408-.486.148-.156.288-.318.42-.486.132-.168.242-.35.33-.546.088-.196.132-.418.132-.666 0-.352-.058-.658-.174-.918-.116-.26-.276-.474-.48-.642-.204-.168-.444-.292-.72-.372-.276-.08-.574-.12-.894-.12-.472 0-.902.1-1.29.3-.388.2-.722.464-1.002.792l.972.888c.16-.16.326-.292.498-.396.172-.104.37-.156.594-.156.24 0 .434.064.582.192.148.128.222.316.222.564 0 .152-.042.298-.126.438-.084.14-.19.284-.318.432-.128.148-.262.302-.402.462-.14.16-.266.336-.378.528-.112.192-.198.4-.258.624-.06.224-.07.472-.03.744zm.768 2.916c.304 0 .558-.106.762-.318.204-.212.306-.474.306-.786 0-.32-.102-.586-.306-.798-.204-.212-.458-.318-.762-.318s-.556.106-.756.318c-.2.212-.3.478-.3.798 0 .312.1.574.3.786.2.212.452.318.756.318z"/></svg>
